images/quiverx.svg

<svg height="250" viewBox="0 0 250 250" width="250" xmlns="http://www.w3.org/2000/svg"><path d="m116.210938 1.269531c-.292969.292969-3.417969.683594-6.835938.78125-3.515625.097657-7.03125.585938-7.8125.976563-1.660156.878906-8.886719 2.246094-10.15625 1.953125-.390625-.097657-1.269531.195312-1.953125.683593-.585937.488282-2.832031 1.464844-4.980469 2.050782-7.226562 2.148437-24.21875 10.253906-25.976562 12.402344-.585938.78125-1.757813 1.367187-2.441406 1.367187-.78125 0-1.367188.390625-1.367188.878906s-.78125 1.171875-1.660156 1.464844c-.976563.292969-3.027344 1.757813-4.6875 3.222656-1.5625 1.5625-4.6875 4.003907-6.835938 5.664063-4.199218 3.125-9.277344 8.105468-9.277344 9.179687 0 .390625-1.757812 2.636719-3.90625 4.980469-2.148437 2.34375-4.199218 5.078125-4.492187 6.054688-.292969.976562-.976563 1.757812-1.464844 1.757812s-.878906.585938-.878906 1.269531c0 .683594-.78125 2.148438-1.757813 3.222657-.976562.976562-2.441406 3.320312-3.125 4.980468-.78125 1.757813-1.855468 3.222656-2.246093 3.222656-.488281 0-.585938.390626-.292969.78125.292969.488282-.390625 2.050782-1.464844 3.710938-.976562 1.5625-1.855468 3.613281-1.855468 4.492188 0 .976562-.390626 1.757812-.976563 1.757812-.488281 0-.976563 1.074219-.976563 2.34375 0 1.367188-.390624 2.734375-.976562 3.027344-.488281.292968-.976562 1.660156-.976562 3.027344 0 1.269531-.390626 2.34375-.78125 2.34375-.390626 0-1.269532 2.929687-1.855469 6.542968-.683594 3.710938-1.464844 8.203125-1.953125 10.058594-1.464844 6.738281-.78125 36.132812.976562 44.433594.878906 4.296875 1.757813 8.789062 1.953125 9.960937.195313 1.171875.585938 2.539063.976563 2.832031.390625.390626.683594 1.757813.683594 3.027344 0 1.269532.488281 2.246094.976562 2.246094.585938 0 .976562.878906.976562 1.855469 0 1.074219.488282 2.246093.976563 2.539062.585937.292969.976563 1.660157.976563 3.027344 0 1.269531.390624 2.34375.878906 2.34375.488281 0 1.171875 1.367187 1.5625 2.929687.390625 1.660157 1.074218 2.929688 1.5625 2.929688.488281 0 .878906.683594.878906 1.464844 0 .878906.878906 2.441406 1.953125 3.613281s1.953125 2.734375 1.953125 3.417969.390625 1.269531.78125 1.269531 1.5625 1.464844 2.636719 3.125c.976562 1.757813 2.34375 3.710937 2.832031 4.296875.585938.585938 2.34375 2.734375 4.003906 4.785156 4.785156 6.152344 16.992188 18.066406 18.457032 18.066406.78125 0 2.246093 1.074219 3.320312 2.441407 1.074219 1.367187 2.539062 2.441406 3.320312 2.441406.683594 0 1.953126.878906 2.734376 1.953125s1.953124 1.953125 2.539062 1.953125c.683594 0 3.90625 1.5625 7.226562 3.417969 3.320313 1.855468 6.640626 3.417968 7.421876 3.417968s1.367187.390626 1.367187.976563c0 .488281.976563.976563 2.246094.976563s2.636719.390624 3.125.878906c.976562.878906 15.527343 4.882812 20.507812 5.566406 1.660157.292969 4.003907.683594 5.371094 1.074219 3.613281.878906 33.496094 1.171875 34.667969.292969.585937-.390626 2.929687-.976563 5.371094-1.269532 2.441406-.390625 6.152343-.976562 8.300781-1.5625 2.148437-.488281 4.882812-1.171875 6.054687-1.367187 1.171875-.292969 2.929688-.976563 3.90625-1.464844.976563-.488281 2.34375-.683594 3.027344-.488281.585938.292968 1.171875 0 1.171875-.585938 0-.585937.878906-1.074218 1.855469-1.074218 1.074218 0 2.246094-.488282 2.539062-.976563.292969-.585937 1.464844-.976563 2.539063-.976563.976562 0 1.855469-.390624 1.855469-.878906 0-.78125 2.050781-1.660156 5.664062-2.539062.78125-.195313 2.148438-1.074219 3.027344-1.855469.976562-.878906 2.246094-1.5625 2.832031-1.5625.683594 0 1.171875-.488281 1.171875-.976563 0-.585937.78125-.976562 1.757812-.976562.976563 0 2.34375-.878906 3.125-1.953125s1.953126-1.953125 2.636719-1.953125c.78125 0 3.125-1.953125 5.371094-4.394531 2.246094-2.441407 4.6875-4.394531 5.371094-4.394531.683593 0 1.269531-.488282 1.269531-1.074219 0-.488281.292969-.78125.78125-.585938.878906.390625 5.078125-3.90625 4.296875-4.589843-.292969-.292969 0-.585938.585937-.585938.683594 0 1.171876-.488281 1.171876-1.074219 0-.683593 1.953124-3.125 4.394531-5.566406 2.441406-2.34375 4.394531-4.980469 4.394531-5.664063 0-.78125.488281-1.367187.976562-1.367187.585938 0 .976563-.683594.976563-1.5625 0-.78125.488281-1.171875.976563-.878906.585937.292969.976562-.292969.976562-1.367188 0-1.171875.488281-2.050781.976562-2.050781.585938 0 .976563-.488281.976563-1.074219 0-.585937.878906-2.148437 1.953125-3.515625 1.074219-1.367187 1.757812-2.832031 1.464844-3.222656-.292969-.390625.195312-1.269531.976562-1.953125s1.171875-1.5625.878906-2.050781c-.292968-.488282 0-.878906.488282-.878906.585937 0 1.074218-.878907 1.074218-1.855469 0-1.074219.488282-2.246094.976563-2.539063.585937-.292968.976563-1.464844.976563-2.539062 0-.976563.488281-1.855469.976562-1.855469.585938 0 .976562-1.074219.976562-2.441406 0-1.367188.488282-2.441407 1.074219-2.441407.488281 0 .78125-.390624.488281-.878906-.390624-.488281.097657-3.515625.976563-6.640625s1.855469-7.421875 2.050781-9.570312c.195313-2.148438.683594-4.589844.976563-5.371094.976562-2.246094 1.171875-27.929687.292969-32.03125-.488282-1.953125-1.074219-5.371094-1.367188-7.519531-.78125-6.152344-4.101562-19.335938-5.371094-21.777344-2.441406-4.492188-7.910156-16.894531-7.910156-17.773438 0-.488281-.390625-.976562-.976562-.976562-.488282 0-.976563-.78125-.976563-1.757812 0-.976563-.878906-2.34375-1.953125-3.125s-1.953125-1.855469-1.953125-2.441407c0-.683593-1.074219-2.148437-2.441406-3.417969-1.367188-1.269531-2.441407-2.832031-2.441407-3.417968 0-.585938-.976562-1.953125-2.148437-3.125-1.269531-1.074219-3.613281-3.417969-5.273437-5.273438-3.613282-4.003906-11.914063-11.621094-12.695313-11.621094-.292969 0-1.5625-1.074218-2.929687-2.441406-1.367188-1.367187-2.734376-2.441406-3.222657-2.441406-.390625 0-1.660156-.878906-2.832031-1.953125-1.171875-1.171875-2.148438-1.757813-2.148438-1.464844s-1.464843-.488281-3.222656-1.855469c-1.855468-1.464843-3.808594-2.539062-4.492187-2.539062-.683594 0-1.855469-.683594-2.636719-1.464844-.878906-.78125-2.34375-1.464844-3.417969-1.464844s-1.660156-.488281-1.367187-.976562c.292968-.585938-.195313-.976562-1.074219-.976562-2.34375 0-8.203125-2.148438-8.203125-3.027344 0-.390625-.78125-.78125-1.660156-.78125-.976563 0-3.515625-.390625-5.664063-.976563-9.472656-2.636719-19.433593-4.101562-31.25-4.589843-6.933593-.390626-12.890625-.390626-13.183593-.097657zm24.121093 75.878907c9.570313 3.320312 18.554688 11.132812 23.046875 20.214843 6.542969 12.792969 6.054688 31.542969-1.074218 44.628907-3.125 5.664062-10.742188 13.574218-14.84375 15.234374-3.613282 1.464844-3.613282 2.636719-.195313 6.347657 9.667969 10.546875 14.84375 11.035156 24.121094 2.34375 2.050781-1.855469 3.417969-2.441407 4.296875-1.953125 1.953125 1.171875-.195313 6.152344-4.6875 11.132812-9.472656 10.546875-19.726563 8.59375-28.90625-5.273437l-4.882813-7.421875-8.789062.488281c-14.0625.78125-24.21875-3.027344-33.59375-12.597656-4.980469-5.078125-9.179688-12.695313-10.742188-19.53125-1.464843-6.347657-1.269531-18.261719.390625-24.804688 6.152344-23.730469 32.03125-37.011719 55.859375-28.808593zm0 0"/><path d="m116.601562 80.46875c-6.445312 2.050781-10.839843 6.054688-14.0625 12.695312-3.90625 8.007813-5.273437 17.089844-4.589843 30.273438.683593 13.574219 3.125 21.191406 8.789062 27.636719l1.953125 2.148437 4.394532-3.808594c7.421874-6.640624 14.648437-6.25 23.046874 1.074219l4.589844 4.101563 2.441406-2.34375c12.988282-12.207032 13.574219-52.441406 1.074219-66.113282-5.46875-5.957031-18.652343-8.691406-27.636719-5.664062zm0 0"/></svg>

<svg xmlns="http://www.w3.org/2000/svg" xmlns:xlink="http://www.w3.org/1999/xlink" width="250px" height="250px" viewBox="0 0 250 250" version="1.1">
<g id="surface1">
<path style=" stroke:none;fill-rule:nonzero;fill:rgb(0%,0%,0%);fill-opacity:1;" d="M 116.210938 1.269531 C 115.917969 1.5625 112.792969 1.953125 109.375 2.050781 C 105.859375 2.148438 102.34375 2.636719 101.5625 3.027344 C 99.902344 3.90625 92.675781 5.273438 91.40625 4.980469 C 91.015625 4.882812 90.136719 5.175781 89.453125 5.664062 C 88.867188 6.152344 86.621094 7.128906 84.472656 7.714844 C 77.246094 9.863281 60.253906 17.96875 58.496094 20.117188 C 57.910156 20.898438 56.738281 21.484375 56.054688 21.484375 C 55.273438 21.484375 54.6875 21.875 54.6875 22.363281 C 54.6875 22.851562 53.90625 23.535156 53.027344 23.828125 C 52.050781 24.121094 50 25.585938 48.339844 27.050781 C 46.777344 28.613281 43.652344 31.054688 41.503906 32.714844 C 37.304688 35.839844 32.226562 40.820312 32.226562 41.894531 C 32.226562 42.285156 30.46875 44.53125 28.320312 46.875 C 26.171875 49.21875 24.121094 51.953125 23.828125 52.929688 C 23.535156 53.90625 22.851562 54.6875 22.363281 54.6875 C 21.875 54.6875 21.484375 55.273438 21.484375 55.957031 C 21.484375 56.640625 20.703125 58.105469 19.726562 59.179688 C 18.75 60.15625 17.285156 62.5 16.601562 64.160156 C 15.820312 65.917969 14.746094 67.382812 14.355469 67.382812 C 13.867188 67.382812 13.769531 67.773438 14.0625 68.164062 C 14.355469 68.652344 13.671875 70.214844 12.597656 71.875 C 11.621094 73.4375 10.742188 75.488281 10.742188 76.367188 C 10.742188 77.34375 10.351562 78.125 9.765625 78.125 C 9.277344 78.125 8.789062 79.199219 8.789062 80.46875 C 8.789062 81.835938 8.398438 83.203125 7.8125 83.496094 C 7.324219 83.789062 6.835938 85.15625 6.835938 86.523438 C 6.835938 87.792969 6.445312 88.867188 6.054688 88.867188 C 5.664062 88.867188 4.785156 91.796875 4.199219 95.410156 C 3.515625 99.121094 2.734375 103.613281 2.246094 105.46875 C 0.78125 112.207031 1.464844 141.601562 3.222656 149.902344 C 4.101562 154.199219 4.980469 158.691406 5.175781 159.863281 C 5.371094 161.035156 5.761719 162.402344 6.152344 162.695312 C 6.542969 163.085938 6.835938 164.453125 6.835938 165.722656 C 6.835938 166.992188 7.324219 167.96875 7.8125 167.96875 C 8.398438 167.96875 8.789062 168.847656 8.789062 169.824219 C 8.789062 170.898438 9.277344 172.070312 9.765625 172.363281 C 10.351562 172.65625 10.742188 174.023438 10.742188 175.390625 C 10.742188 176.660156 11.132812 177.734375 11.621094 177.734375 C 12.109375 177.734375 12.792969 179.101562 13.183594 180.664062 C 13.574219 182.324219 14.257812 183.59375 14.746094 183.59375 C 15.234375 183.59375 15.625 184.277344 15.625 185.058594 C 15.625 185.9375 16.503906 187.5 17.578125 188.671875 C 18.652344 189.84375 19.53125 191.40625 19.53125 192.089844 C 19.53125 192.773438 19.921875 193.359375 20.3125 193.359375 C 20.703125 193.359375 21.875 194.824219 22.949219 196.484375 C 23.925781 198.242188 25.292969 200.195312 25.78125 200.78125 C 26.367188 201.367188 28.125 203.515625 29.785156 205.566406 C 34.570312 211.71875 46.777344 223.632812 48.242188 223.632812 C 49.023438 223.632812 50.488281 224.707031 51.5625 226.074219 C 52.636719 227.441406 54.101562 228.515625 54.882812 228.515625 C 55.566406 228.515625 56.835938 229.394531 57.617188 230.46875 C 58.398438 231.542969 59.570312 232.421875 60.15625 232.421875 C 60.839844 232.421875 64.0625 233.984375 67.382812 235.839844 C 70.703125 237.695312 74.023438 239.257812 74.804688 239.257812 C 75.585938 239.257812 76.171875 239.648438 76.171875 240.234375 C 76.171875 240.722656 77.148438 241.210938 78.417969 241.210938 C 79.6875 241.210938 81.054688 241.601562 81.542969 242.089844 C 82.519531 242.96875 97.070312 246.972656 102.050781 247.65625 C 103.710938 247.949219 106.054688 248.339844 107.421875 248.730469 C 111.035156 249.609375 140.917969 249.902344 142.089844 249.023438 C 142.675781 248.632812 145.019531 248.046875 147.460938 247.753906 C 149.902344 247.363281 153.613281 246.777344 155.761719 246.191406 C 157.910156 245.703125 160.644531 245.019531 161.816406 244.824219 C 162.988281 244.53125 164.746094 243.847656 165.722656 243.359375 C 166.699219 242.871094 168.066406 242.675781 168.75 242.871094 C 169.335938 243.164062 169.921875 242.871094 169.921875 242.285156 C 169.921875 241.699219 170.800781 241.210938 171.777344 241.210938 C 172.851562 241.210938 174.023438 240.722656 174.316406 240.234375 C 174.609375 239.648438 175.78125 239.257812 176.855469 239.257812 C 177.832031 239.257812 178.710938 238.867188 178.710938 238.378906 C 178.710938 237.597656 180.761719 236.71875 184.375 235.839844 C 185.15625 235.644531 186.523438 234.765625 187.402344 233.984375 C 188.378906 233.105469 189.648438 232.421875 190.234375 232.421875 C 190.917969 232.421875 191.40625 231.933594 191.40625 231.445312 C 191.40625 230.859375 192.1875 230.46875 193.164062 230.46875 C 194.140625 230.46875 195.507812 229.589844 196.289062 228.515625 C 197.070312 227.441406 198.242188 226.5625 198.925781 226.5625 C 199.707031 226.5625 202.050781 224.609375 204.296875 222.167969 C 206.542969 219.726562 208.984375 217.773438 209.667969 217.773438 C 210.351562 217.773438 210.9375 217.285156 210.9375 216.699219 C 210.9375 216.210938 211.230469 215.917969 211.71875 216.113281 C 212.597656 216.503906 216.796875 212.207031 216.015625 211.523438 C 215.722656 211.230469 216.015625 210.9375 216.601562 210.9375 C 217.285156 210.9375 217.773438 210.449219 217.773438 209.863281 C 217.773438 209.179688 219.726562 206.738281 222.167969 204.296875 C 224.609375 201.953125 226.5625 199.316406 226.5625 198.632812 C 226.5625 197.851562 227.050781 197.265625 227.539062 197.265625 C 228.125 197.265625 228.515625 196.582031 228.515625 195.703125 C 228.515625 194.921875 229.003906 194.53125 229.492188 194.824219 C 230.078125 195.117188 230.46875 194.53125 230.46875 193.457031 C 230.46875 192.285156 230.957031 191.40625 231.445312 191.40625 C 232.03125 191.40625 232.421875 190.917969 232.421875 190.332031 C 232.421875 189.746094 233.300781 188.183594 234.375 186.816406 C 235.449219 185.449219 236.132812 183.984375 235.839844 183.59375 C 235.546875 183.203125 236.035156 182.324219 236.816406 181.640625 C 237.597656 180.957031 237.988281 180.078125 237.695312 179.589844 C 237.402344 179.101562 237.695312 178.710938 238.183594 178.710938 C 238.769531 178.710938 239.257812 177.832031 239.257812 176.855469 C 239.257812 175.78125 239.746094 174.609375 240.234375 174.316406 C 240.820312 174.023438 241.210938 172.851562 241.210938 171.777344 C 241.210938 170.800781 241.699219 169.921875 242.1875 169.921875 C 242.773438 169.921875 243.164062 168.847656 243.164062 167.480469 C 243.164062 166.113281 243.652344 165.039062 244.238281 165.039062 C 244.726562 165.039062 245.019531 164.648438 244.726562 164.160156 C 244.335938 163.671875 244.824219 160.644531 245.703125 157.519531 C 246.582031 154.394531 247.558594 150.097656 247.753906 147.949219 C 247.949219 145.800781 248.4375 143.359375 248.730469 142.578125 C 249.707031 140.332031 249.902344 114.648438 249.023438 110.546875 C 248.535156 108.59375 247.949219 105.175781 247.65625 103.027344 C 246.875 96.875 243.554688 83.691406 242.285156 81.25 C 239.84375 76.757812 234.375 64.355469 234.375 63.476562 C 234.375 62.988281 233.984375 62.5 233.398438 62.5 C 232.910156 62.5 232.421875 61.71875 232.421875 60.742188 C 232.421875 59.765625 231.542969 58.398438 230.46875 57.617188 C 229.394531 56.835938 228.515625 55.761719 228.515625 55.175781 C 228.515625 54.492188 227.441406 53.027344 226.074219 51.757812 C 224.707031 50.488281 223.632812 48.925781 223.632812 48.339844 C 223.632812 47.753906 222.65625 46.386719 221.484375 45.214844 C 220.214844 44.140625 217.871094 41.796875 216.210938 39.941406 C 212.597656 35.9375 204.296875 28.320312 203.515625 28.320312 C 203.222656 28.320312 201.953125 27.246094 200.585938 25.878906 C 199.21875 24.511719 197.851562 23.4375 197.363281 23.4375 C 196.972656 23.4375 195.703125 22.558594 194.53125 21.484375 C 193.359375 20.3125 192.382812 19.726562 192.382812 20.019531 C 192.382812 20.3125 190.917969 19.53125 189.160156 18.164062 C 187.304688 16.699219 185.351562 15.625 184.667969 15.625 C 183.984375 15.625 182.8125 14.941406 182.03125 14.160156 C 181.152344 13.378906 179.6875 12.695312 178.613281 12.695312 C 177.539062 12.695312 176.953125 12.207031 177.246094 11.71875 C 177.539062 11.132812 177.050781 10.742188 176.171875 10.742188 C 173.828125 10.742188 167.96875 8.59375 167.96875 7.714844 C 167.96875 7.324219 167.1875 6.933594 166.308594 6.933594 C 165.332031 6.933594 162.792969 6.542969 160.644531 5.957031 C 151.171875 3.320312 141.210938 1.855469 129.394531 1.367188 C 122.460938 0.976562 116.503906 0.976562 116.210938 1.269531 Z M 140.332031 77.148438 C 149.902344 80.46875 158.886719 88.28125 163.378906 97.363281 C 169.921875 110.15625 169.433594 128.90625 162.304688 141.992188 C 159.179688 147.65625 151.5625 155.566406 147.460938 157.226562 C 143.847656 158.691406 143.847656 159.863281 147.265625 163.574219 C 156.933594 174.121094 162.109375 174.609375 171.386719 165.917969 C 173.4375 164.0625 174.804688 163.476562 175.683594 163.964844 C 177.636719 165.136719 175.488281 170.117188 170.996094 175.097656 C 161.523438 185.644531 151.269531 183.691406 142.089844 169.824219 L 137.207031 162.402344 L 128.417969 162.890625 C 114.355469 163.671875 104.199219 159.863281 94.824219 150.292969 C 89.84375 145.214844 85.644531 137.597656 84.082031 130.761719 C 82.617188 124.414062 82.8125 112.5 84.472656 105.957031 C 90.625 82.226562 116.503906 68.945312 140.332031 77.148438 Z M 140.332031 77.148438 "/>
<path style=" stroke:none;fill-rule:nonzero;fill:rgb(0%,0%,0%);fill-opacity:1;" d="M 116.601562 80.46875 C 110.15625 82.519531 105.761719 86.523438 102.539062 93.164062 C 98.632812 101.171875 97.265625 110.253906 97.949219 123.4375 C 98.632812 137.011719 101.074219 144.628906 106.738281 151.074219 L 108.691406 153.222656 L 113.085938 149.414062 C 120.507812 142.773438 127.734375 143.164062 136.132812 150.488281 L 140.722656 154.589844 L 143.164062 152.246094 C 156.152344 140.039062 156.738281 99.804688 144.238281 86.132812 C 138.769531 80.175781 125.585938 77.441406 116.601562 80.46875 Z M 116.601562 80.46875 "/>
</g>
</svg>
